img/fire-icon.svg

<svg width="25" height="32" viewBox="0 0 25 32" fill="none" xmlns="http://www.w3.org/2000/svg">
<path d="M24.4316 18.7355C24.0651 13.9631 21.8431 10.9724 19.8828 8.3333C18.0677 5.89006 16.5 3.78018 16.5 0.667808C16.5 0.417808 16.36 0.189308 16.138 0.074746C15.9153 -0.0405039 15.6477 -0.021629 15.4453 0.125496C12.5013 2.23212 10.0449 5.78268 9.18687 9.17043C8.59118 11.529 8.51237 14.1805 8.50131 15.9317C5.78256 15.351 5.16669 11.2842 5.16019 11.2399C5.12956 11.029 5.00069 10.8454 4.81319 10.7452C4.62375 10.6462 4.40106 10.6391 4.209 10.7341C4.06644 10.8031 0.709625 12.5087 0.514312 19.3188C0.500625 19.5454 0.5 19.7726 0.5 19.9998C0.5 26.6159 5.88344 31.999 12.5 31.999C12.5091 31.9996 12.5189 32.0009 12.5267 31.999C12.5293 31.999 12.5319 31.999 12.5351 31.999C19.1354 31.98 24.5 26.6042 24.5 19.9998C24.5 19.6671 24.4316 18.7355 24.4316 18.7355ZM12.5 30.6657C10.2942 30.6657 8.5 28.7544 8.5 26.405C8.5 26.3249 8.49937 26.2442 8.50518 26.1452C8.53187 25.1544 8.72006 24.478 8.92643 24.0282C9.31318 24.8589 10.0046 25.6225 11.1276 25.6225C11.4961 25.6225 11.7943 25.3243 11.7943 24.9559C11.7943 24.0067 11.8139 22.9117 12.0502 21.9235C12.2605 21.0472 12.7631 20.115 13.3998 19.3677C13.683 20.3377 14.2351 21.1227 14.7742 21.889C15.5457 22.9852 16.3432 24.1187 16.4832 26.0515C16.4916 26.166 16.5001 26.2813 16.5001 26.405C16.5 28.7544 14.7057 30.6657 12.5 30.6657Z" fill="#E23535"/>
</svg>

<svg width="25" height="32" fill="none" xmlns="http://www.w3.org/2000/svg"><path d="M24.432 18.735c-.367-4.772-2.589-7.763-4.55-10.402C18.069 5.89 16.5 3.78 16.5.668a.668.668 0 0 0-1.055-.543c-2.944 2.107-5.4 5.658-6.258 9.045-.596 2.359-.675 5.01-.686 6.762-2.718-.581-3.334-4.648-3.34-4.692a.664.664 0 0 0-.951-.506c-.144.07-3.5 1.775-3.696 8.585-.013.226-.014.454-.014.68 0 6.617 5.383 12 12 12 .01 0 .019.002.027 0h.008c6.6-.019 11.965-5.395 11.965-12 0-.332-.068-1.264-.068-1.264ZM12.5 30.665c-2.206 0-4-1.91-4-4.26 0-.08 0-.16.005-.26.027-.99.215-1.667.421-2.117.387.83 1.079 1.595 2.202 1.595a.666.666 0 0 0 .666-.667c0-.95.02-2.044.256-3.032.21-.877.713-1.809 1.35-2.556.283.97.835 1.755 1.374 2.521.772 1.096 1.57 2.23 1.71 4.163.008.114.016.23.016.353 0 2.35-1.794 4.26-4 4.26Z" fill="#E23535"/></svg>
